**kern	**kern	**kern	**kern
*staff3	*staff4	*staff1	*staff2
*clefF4	*clefF4	*clefG2	*clefG2
*k[f#c#]	*k[f#c#]	*k[f#c#]	*k[f#c#]
*M2/4	*M2/4	*M2/4	*M2/4
*D:	*D:	*D:	*D:
=-	=-	=-	=-
2r	8.DD'L 8.D'	8.A'L 8.d' 8.f#'	2r
.	16DD'Jk 16D'	16A'Jk 16e' 16g'	.
.	8.DD'L 8.D'	8.A'L 8.f#' 8.a'	.
.	16AAA'Jk 16AA'	16A'Jk 16c#' 16e'	.
=185	=185	=185	=185
2r	([4BBB [4BB 4F#	4.d	2r
.	8BBB]) 8BB] 8D	.	.
.	16r	16r	.
.	16F# 16f#	16dd 16ccc#	.
=186	=186	=186	=186
2r	8.G'L 8.g'	8.dd'L 8.bb'	2r
.	16G'Jk 16g'	16dd'Jk 16ccc#'	.
.	8.B'L 8.g'	8.dd'L 8.ddd'	.
.	16B'Jk 16g'	16dd'Jk 16bb'	.
=187	=187	=187	=187
2r	([4d 4f#	([4dd 4aa	2r
.	8d]) 8a	8dd]) 8ff#	.
.	8r	8r	.
=188	=188	=188	=188
2r	8.DD'L 8.AA' 8.D'	8.A'L 8.d' 8.f#'	2r
.	16DD'Jk 16AA' 16D'	16A'Jk 16e' 16g'	.
.	8.DD'L 8.AA' 8.D'	8.A'L 8.f#' 8.a'	.
.	16DD'Jk 16AA' 16D'	16A'Jk 16f#' 16b'	.
=189	=189	=189	=189
2r	4.CC# 4.AA 4.C#	([4A [4e 4a	2r
.	.	8A']) 8e'] 8g'	.
.	16r	16r	.
.	16C# 16A 16c#	16a 16ee 16gg	.
=190	=190	=190	=190
2r	8.D'L 8.A' 8.d'	8.a'L 8.dd' 8.ff#'	2r
.	16D'Jk 16A' 16d'	16a'Jk 16cc#' 16ee'	.
.	8.D'L 8.A' 8.d'	8.a'L 8.dd' 8.ff#'	.
.	16D'Jk 16A'	16a'Jk 16ee' 16gg'	.
=191	=191	=191	=191
2r	4.AA 4.A	([4a 4dd 4ff#	2r
.	.	8a]) 8cc# 8ee	.
.	8r	8r	.
=192:|!|:	=192:|!|:	=192:|!|:	=192:|!|:
*-	*-	*-	*-
